packages/bezier-icons/icons/chat-bubble-alt-push-filled.svg

<svg width="24" height="24" viewBox="0 0 24 24" fill="none" xmlns="http://www.w3.org/2000/svg">
<path fill-rule="evenodd" clip-rule="evenodd" d="M18.5 10C20.433 10 22 8.433 22 6.5C22 4.567 20.433 3 18.5 3C16.567 3 15 4.567 15 6.5C15 8.433 16.567 10 18.5 10ZM12 4C12.5268 4 13.0437 4.03612 13.5472 4.10556C13.1966 4.82942 13 5.64175 13 6.5C13 9.53757 15.4624 12 18.5 12C19.584 12 20.5947 11.6864 21.4464 11.1451C21.4818 11.4259 21.5 11.7112 21.5 12C21.5 16.4183 17.2467 20 12 20C11.3111 20 10.6393 19.9383 9.99208 19.821C8.57586 21.032 6.93904 21.612 5.8791 21.8801C5.45705 21.9869 5.16123 21.5173 5.38209 21.1421C5.76983 20.4835 6.24675 19.5469 6.52458 18.5384C4.08986 17.0899 2.5 14.7013 2.5 12C2.5 7.58172 6.75329 4 12 4Z" fill="#313234"/>
</svg>

<svg xmlns="http://www.w3.org/2000/svg" width="24" height="24" fill="none" viewBox="0 0 24 24"><path fill="#313234" fill-rule="evenodd" d="M18.5 10a3.5 3.5 0 1 0 0-7 3.5 3.5 0 0 0 0 7M12 4q.791 0 1.547.106a5.5 5.5 0 0 0 7.9 7.04q.053.42.053.854c0 4.418-4.253 8-9.5 8q-1.035-.002-2.008-.179c-1.416 1.211-3.053 1.791-4.113 2.06-.422.106-.718-.364-.497-.739.388-.659.865-1.595 1.143-2.604C4.09 17.09 2.5 14.701 2.5 12c0-4.418 4.253-8 9.5-8" clip-rule="evenodd"/></svg>
